X:1
T:Twilight, 64.66
T:J. H. Hopkins
T:Twilight, 64.66
T:Public Domain
C:J. H. Hopkins
Z:Public Domain
%%score ( 1 2 ) ( 3 4 )
L:1/8
M:4/4
K:G
V:1 treble 
V:2 treble 
V:3 bass 
V:4 bass 
V:1
 [GB]4 | [DA]2 [EG]2 [DF]2 [^CE]2 | D6 D2 | [CE]4 [CG]4 | [B,D]6 [B,D]2 | %5
 [CE]2 [^DF]2 [EG]2 [FA]2 | [GB]2 [Gc]2 [Fd]2 [GB]2 | [EA]4 (D2 C2) | [B,G]4 |] %9
V:2
 x4 | x8 | D6 D2 | x8 | x8 | x8 | x8 | x4 A4 | x4 |] %9
V:3
 [G,D]4 | [F,D]2 [G,B,]2 A,2 [A,,G,]2 | [D,F,]6 [B,,G,]2 | [C,G,]4 [E,G,]4 | G,6 G,2 | %5
 [C,G,]2 [B,,B,]2 [E,B,]2 [D,D]2 | [G,D]2 [E,G,]2 [D,A,]2 G,2 | (G,2 F,E,) [D,F,]4 | [G,,G,]4 |] %9
V:4
 x4 | x4 A,2 x2 | x8 | x8 | G,6 G,2 | x8 | x6 G,2 | C,4 x4 | x4 |] %9

